flaticon/essential/rewind-1.svg

<svg xmlns="http://www.w3.org/2000/svg" width="32" height="32" viewBox="0 0 24 24">
    <path d="M 19.785156 5.644531 C 19.65625 5.578125 19.496094 5.585938 19.375 5.667969 L 11.199219 11.242188 L 11.199219 6 C 11.199219 5.851562 11.117188 5.714844 10.988281 5.644531 C 10.855469 5.578125 10.699219 5.585938 10.574219 5.667969 L 1.773438 11.667969 C 1.664062 11.742188 1.601562 11.867188 1.601562 12 C 1.601562 12.132812 1.664062 12.257812 1.773438 12.332031 L 10.574219 18.332031 C 10.640625 18.375 10.722656 18.398438 10.800781 18.398438 C 10.863281 18.398438 10.929688 18.386719 10.988281 18.355469 C 11.117188 18.285156 11.199219 18.148438 11.199219 18 L 11.199219 12.757812 L 19.375 18.332031 C 19.441406 18.375 19.519531 18.398438 19.601562 18.398438 C 19.664062 18.398438 19.726562 18.386719 19.785156 18.355469 C 19.917969 18.285156 20 18.148438 20 18 L 20 6 C 20 5.851562 19.917969 5.714844 19.785156 5.644531 Z M 10.398438 17.242188 L 2.710938 12 L 10.398438 6.757812 Z M 19.199219 17.242188 L 11.511719 12 L 19.199219 6.757812 Z M 19.199219 17.242188"/>
    <path d="M 12 0 C 5.382812 0 0 5.382812 0 12 C 0 18.617188 5.382812 24 12 24 C 18.617188 24 24 18.617188 24 12 C 24 5.382812 18.617188 0 12 0 Z M 12 23.199219 C 5.824219 23.199219 0.800781 18.175781 0.800781 12 C 0.800781 5.824219 5.824219 0.800781 12 0.800781 C 18.175781 0.800781 23.199219 5.824219 23.199219 12 C 23.199219 18.175781 18.175781 23.199219 12 23.199219 Z M 12 23.199219"/>
</svg>

<svg xmlns="http://www.w3.org/2000/svg" width="32" height="32" viewBox="0 0 24 24">
    <path d="M19.785 5.645a.406.406 0 0 0-.41.023l-8.176 5.574V6a.406.406 0 0 0-.21-.355.414.414 0 0 0-.415.023l-8.8 6a.399.399 0 0 0-.172.332c0 .133.062.258.171.332l8.801 6a.426.426 0 0 0 .414.023A.406.406 0 0 0 11.2 18v-5.242l8.176 5.574a.416.416 0 0 0 .41.023A.402.402 0 0 0 20 18V6a.402.402 0 0 0-.215-.355zm-9.387 11.597L2.711 12l7.687-5.242zm8.801 0L11.512 12l7.687-5.242zm0 0"/>
    <path d="M12 0C5.383 0 0 5.383 0 12s5.383 12 12 12 12-5.383 12-12S18.617 0 12 0zm0 23.2C5.824 23.2.8 18.175.8 12 .8 5.824 5.825.8 12 .8 18.176.8 23.2 5.825 23.2 12c0 6.176-5.024 11.2-11.2 11.2zm0 0"/>
</svg>
